chrome/urlbar/permissions/xr-blocked.svg

<svg xmlns="http://www.w3.org/2000/svg" width="16" height="16" viewBox="0 0 16 16">
   <path
   style="fill:context-fill;fill-opacity:context-fill-opacity"
   d="M 0.4765625 0 A 0.5 0.5 0 0 0 0.14648438 0.14648438 A 0.5 0.5 0 0 0 0.14648438 0.85351562 L 3.6523438 4.359375 C 2.765814 4.4969168 1.8789617 4.6626606 0.9921875 4.8867188 C 0.4040075 5.0353388 0 5.5674919 0 6.1699219 L 0 8.71875 C 0 10.52315 1.4411981 12 3.2363281 12 L 5.2402344 12 C 5.8532744 12 6.4340775 11.732078 6.8359375 11.267578 L 7.3652344 10.65625 C 7.6751244 10.29795 8.2079936 10.263074 8.5585938 10.576172 C 8.5859938 10.600672 8.6105656 10.62825 8.6347656 10.65625 L 9.1640625 11.267578 C 9.5659623 11.731978 10.146866 12 10.759766 12 L 11.292969 12 L 15.146484 15.853516 A 0.5 0.5 0 0 0 15.853516 15.853516 A 0.5 0.5 0 0 0 15.853516 15.146484 L 0.85351562 0.14648438 A 0.5 0.5 0 0 0 0.4765625 0 z M 8 4 C 7.394194 4 6.7876509 4.020683 6.1816406 4.0605469 L 7.1484375 5.0273438 C 7.4323501 5.0182789 7.7162114 5 8 5 C 10.2494 5 12.502619 5.2846687 14.761719 5.8554688 C 14.896319 5.8894988 15 6.0155119 15 6.1699219 L 15 8.71875 C 15 9.8715584 14.162993 10.805982 13.087891 10.966797 L 13.900391 11.779297 C 15.127911 11.310537 16 10.118754 16 8.71875 L 16 6.1699219 C 16 5.5674619 15.596013 5.0353287 15.007812 4.8867188 C 12.671413 4.2963688 10.3348 4 8 4 z M 4.5429688 5.25 L 8.8886719 9.5957031 C 8.1443088 9.1822029 7.1912452 9.3292231 6.609375 10.001953 L 6.0800781 10.613281 C 5.8661781 10.860481 5.5598944 11 5.2402344 11 L 3.2363281 11 C 2.0084781 11 1 9.98595 1 8.71875 L 1 6.1699219 C 1 6.0155019 1.1036115 5.8894887 1.2382812 5.8554688 C 2.3412259 5.5767935 3.4425751 5.3899375 4.5429688 5.25 z M 2.5 7 C 2.22386 7 2 7.22386 2 7.5 C 2 7.77614 2.22386 8 2.5 8 L 4 8 C 4.27614 8 4.5 7.77614 4.5 7.5 C 4.5 7.22386 4.27614 7 4 7 L 2.5 7 z M 12.001953 7 C 11.725853 6.99939 11.5006 7.2219069 11.5 7.4980469 C 11.4994 7.7741869 11.721947 7.99939 11.998047 8 L 13.498047 8.0039062 C 13.774147 8.0045063 13.9994 7.7800563 14 7.5039062 C 14.0006 7.2277663 13.778053 7.0045062 13.501953 7.0039062 L 12.001953 7 z " />
</svg>

<svg xmlns="http://www.w3.org/2000/svg" width="16" height="16">
  <path style="fill:context-fill;fill-opacity:context-fill-opacity" d="M.477 0a.5.5 0 0 0-.33.146.5.5 0 0 0 0 .708l3.505 3.505c-.886.138-1.773.304-2.66.528A1.32 1.32 0 0 0 0 6.17v2.549C0 10.523 1.441 12 3.236 12H5.24a2.11 2.11 0 0 0 1.596-.732l.53-.612a.835.835 0 0 1 1.269 0l.53.612A2.11 2.11 0 0 0 10.76 12h.533l3.853 3.854a.5.5 0 0 0 .708 0 .5.5 0 0 0 0-.708l-15-15A.5.5 0 0 0 .477 0zM8 4c-.606 0-1.212.02-1.818.06l.966.967C7.432 5.018 7.716 5 8 5c2.25 0 4.503.285 6.762.855.134.034.238.16.238.315v2.549a2.26 2.26 0 0 1-1.912 2.248l.812.812A3.272 3.272 0 0 0 16 8.72v-2.55a1.32 1.32 0 0 0-.992-1.282A28.515 28.515 0 0 0 8 4zM4.543 5.25l4.346 4.346a1.833 1.833 0 0 0-2.28.406l-.529.611a1.11 1.11 0 0 1-.84.387H3.236C2.008 11 1 9.986 1 8.719v-2.55c0-.153.104-.28.238-.314a27.689 27.689 0 0 1 3.305-.605zM2.5 7a.5.5 0 0 0 0 1H4a.5.5 0 0 0 0-1H2.5zm9.502 0a.5.5 0 0 0-.004 1l1.5.004a.502.502 0 0 0 .502-.5c0-.276-.222-.5-.498-.5L12.002 7z"/>
</svg>
